!!!COM: Anonymous
!!!COS: Gaspar van Weerbeke
!!!OPR: Missa [sine nomine]
!!!OTL: Gloria
!!!ONM: 2
!!!AGN: Mass
!!!SCT: Gas0207b
!!!SCA: Gas0207b
!!!voices: 4
**kern	**text	**kern	**text	**kern	**text	**kern	**text
*part4	*part4	*part3	*part3	*part2	*part2	*part1	*part1
*staff4	*staff4	*staff3	*staff3	*staff2	*staff2	*staff1	*staff1
*I"Bassus	*	*I"Tenor	*	*I"Altus	*	*I"Superius	*
*I'B	*	*I'T	*	*I'A	*	*I'S	*
*clefF4	*	*clefGv2	*	*clefGv2	*	*clefG2	*
*k[b-]	*	*k[b-]	*	*k[b-]	*	*k[b-]	*
*M2/2	*	*M2/2	*	*M2/2	*	*M2/2	*
*met(C|)	*	*met(C|)	*	*met(C|)	*	*met(C|)	*
=1	=1	=1	=1	=1	=1	=1	=1
2G	Et	2G	Et	2d	Et	((((2g))))	Et
4G	in	4B-y	in	4d	in	4g	in
[4C	ter-	[4c	ter-	4e	ter-	8gL	ter-
.	.	.	.	.	.	8fJ	.
=2	=2	=2	=2	=2	=2	=2	=2
8CL]	.	8cL]	.	2c	-ra	8eL	.
8DJ	.	8B-yJ	.	.	.	8dJ	.
4E	.	4G	.	.	.	2g	.
2D	-ra	2A	-ra	4d	pax	.	.
.	.	.	.	4f	ho-	4f#i	-ra
=3	=3	=3	=3	=3	=3	=3	=3
4E	pax	4G	pax	4e	-mi-	4g	pax
4E	ho-	4G	ho-	4g	-ni-	4g	ho-
4G	-mi-	4G	-mi-	2d	-bus	4b-y	-mi-
4G	-ni-	4G	-ni-	.	.	4b-y	-ni-
=4	=4	=4	=4	=4	=4	=4	=4
2F	-bus	2c	-bus	4.f	bo-	2a	-bus
.	.	.	.	8e	.	.	.
4F	bo-	4A	bo-	4c	-ne	4a	bo-
4F	-ne	4F	-ne	4A	vo-	4a	-ne
=5	=5	=5	=5	=5	=5	=5	=5
4F	vo-	4A	vo-	4A	-lun-	4a	vo-
4D	-lun-	4A	-lun-	2d	-ta-	4f	-lun-
2E	-ta-	2G	-ta-	.	.	2g	-ta-
.	.	.	.	4c#i	.	.	.
!!LO:LB:g=original
=6	=6	=6	=6	=6	=6	=6	=6
2D	-tis.	2A	-tis.	4.d	-tis.	2f	-tis.
.	.	.	.	8c	.	.	.
2D	Lau-	4d	Lau-	4A	.	4r	.
.	.	[4d	-da-	4A	Lau-	4a	Lau-
=7	=7	=7	=7	=7	=7	=7	=7
4BB-y	-da-	4d]	.	4G	-da-	4b-y	-da-
4GG	-mus	4d	-mus	4G	-mus	4b-y	-mus
2D	te.	2d	te.	4F	te.	2a	te.
.	.	.	.	[4f	Be-	.	.
=8	=8	=8	=8	=8	=8	=8	=8
4F	Be-	4c	Be-	4f]	.	4a	Be-
4F	-ne-	4c	-ne-	4f	-ne-	4a	-ne-
4G	-di-	4B-y	-di-	4d	-di-	4b-y	-di-
4D	-ci-	4d	-ci-	4f	-ci-	4a	-ci-
=9	=9	=9	=9	=9	=9	=9	=9
2G	-mus	2d	-mus	4.d	-mus	2b-y	-mus
.	.	.	.	8e	.	.	.
4D	te.	4.d	te.	2f	te.	2a	te.
4D	Ad-	.	.	.	.	.	.
.	.	8c	.	.	.	.	.
=10	=10	=10	=10	=10	=10	=10	=10
4D	-o-	4A	.	4d	Ad-	4f	Ad-
2C	-ra-	4r	.	2e-j	-o-	4.g	-o-
.	.	4c	Ad-	.	.	.	.
.	.	.	.	.	.	8f	.
4BB-y	-mus	4d	-o-	[4f	-ra-	[4b-y	-ra-
=11	=11	=11	=11	=11	=11	=11	=11
2F	te.	4c	-ra-	4f]	.	4b-]	.
.	.	4c	-mus	4f	-mus	4a	-mus
2G	Glo-	4B-y	te.	4d	te.	4b-y	te.
.	.	4B-y	Glo-	4d	Glo-	4b-y	Glo-
!!LO:LB:g=original
=12	=12	=12	=12	=12	=12	=12	=12
4F	-ri-	4c	-ri-	2f	-ri-	4a	-ri-
4D	-fi-	4d	-fi-	.	.	4b-y	-fi-
4C	-ca-	4e-X	-ca-	4g	-fi-	4.cc	-ca-
[4F	.	4c	.	[4a	-ca-	.	.
.	.	.	.	.	.	8b-y	.
=13	=13	=13	=13	=13	=13	=13	=13
8FL]	.	2.d	.	4a]	.	8aL	.
8E-i	.	.	.	.	.	8gJ	.
8D	.	.	.	2f	.	2b-y	.
8CJ	.	.	.	.	.	.	.
4BB-y	.	.	.	.	.	.	.
4C	.	8cL	.	4e-i	.	8aL	.
.	.	8B-yJ	.	.	.	8gJ	.
=14	=14	=14	=14	=14	=14	=14	=14
4D	.	4A	.	4d	.	4f	.
4E-i	.	4G	.	4c	.	2g	.
2D	-mus	2A	-mus	2d	-mus	.	.
.	.	.	.	.	.	4f#i	-mus
=15	=15	=15	=15	=15	=15	=15	=15
2E-X	te.	2G	te.	2B-y	te.	2g	te.
4.BB-y	Gra-	4.B-y	Gra-	2r	.	4.f	Gra-
8BB-y	-ti-	8B-y	-ti-	.	.	8f	-ti-
=16	=16	=16	=16	=16	=16	=16	=16
4BB-y	-as	4B-y	-as	1r	.	4f	-as
4.E-i	a-	4.B-y	a-	.	.	4.g	a-
8D	-gi-	8B-y	-gi-	.	.	8f	-gi-
4D	-mus	4B-y	-mus	.	.	4f	-mus
=17	=17	=17	=17	=17	=17	=17	=17
2E-i	ti-	2B-y	ti-	1r	.	2g	ti-
2BB-y	-bi	2B-y	-bi	.	.	2d	-bi
!!LO:PB:g=original
=18	=18	=18	=18	=18	=18	=18	=18
1r	.	4r	.	2.f	Pro-	4r	.
.	.	4F	pro-	.	.	4cc	pro-
.	.	4B-y	-pter	.	.	4dd	-pter
.	.	4A	.	4f	-pter	4cc	.
=19	=19	=19	=19	=19	=19	=19	=19
1r	.	4B-y	ma-	2f	ma-	4dd	ma-
.	.	8AL	.	.	.	8ccL	.
.	.	8GJ	.	.	.	8b-yJ	.
.	.	2F	-gnam	2f	-gnam	2a	-gnam
=20	=20	=20	=20	=20	=20	=20	=20
4r	.	1r	.	2f	glo-	4r	.
4D	glo-	.	.	.	.	4a	glo-
4G	-ri-	.	.	4d	-ri-	4b-y	-ri-
4F	-am	.	.	4d	-am	4a	-am
=21	=21	=21	=21	=21	=21	=21	=21
2G	tu-	4r	.	2d	tu-	4b-y	tu-
.	.	4B-y	glo-	.	.	8aL	.
.	.	.	.	.	.	8gJ	.
2D	.	4A	-ri-	2d	-am.	2f	-am.
.	.	4A	-am	.	.	.	.
=22	=22	=22	=22	=22	=22	=22	=22
4BB-y	.	4.G	tu-	1r	.	1r	.
4.C	.	.	.	.	.	.	.
.	.	8F	.	.	.	.	.
.	.	8EL	.	.	.	.	.
8BB-y	.	8DJ	.	.	.	.	.
[4D	.	[4B-y	.	.	.	.	.
=23	=23	=23	=23	=23	=23	=23	=23
8DL]	.	8B-L]	.	4r	.	1r	.
8CJ	.	8AJ	.	.	.	.	.
4BB-y	.	2G	.	4d	Do-	.	.
2AA	.	.	.	4c	-mi-	.	.
.	.	4F#i	.	4c	-ne	.	.
!!LO:LB:g=original
=24	=24	=24	=24	=24	=24	=24	=24
2GG	-am.	2G	-am.	2B-y	De-	4r	.
.	.	.	.	.	.	4b-y	Do-
2r	.	2r	.	2F	-us,	4a	-mi-
.	.	.	.	.	.	4a	-ne
=25	=25	=25	=25	=25	=25	=25	=25
1r	.	1r	.	4r	.	2g	De-
.	.	.	.	4.B-y	Rex	.	.
.	.	.	.	.	.	2d	-us,
.	.	.	.	8AL	.	.	.
.	.	.	.	8G	.	.	.
.	.	.	.	8FJ	.	.	.
=26	=26	=26	=26	=26	=26	=26	=26
1r	.	1r	.	2G	.	4r	.
.	.	.	.	.	.	4.b-y	Rex
.	.	.	.	4d	ce-	.	.
.	.	.	.	.	.	8aL	.
.	.	.	.	4e-i	.	8g	.
.	.	.	.	.	.	8fJ	.
=27	=27	=27	=27	=27	=27	=27	=27
1r	.	2r	.	4c	-le-	4e-i	.
.	.	.	.	4d	.	2d	ce-
.	.	4r	.	2G	.	.	.
.	.	4B-y	Rex	.	.	[4g	-le-
=28	=28	=28	=28	=28	=28	=28	=28
2r	.	2A	ce-	2D	-stis.	4g]	.
.	.	.	.	.	.	4f#i	.
4r	.	2G	-le-	2r	.	2g	-stis.
4B-y	De-	.	.	.	.	.	.
=29	=29	=29	=29	=29	=29	=29	=29
2A	-us	4D	-stis.	1r	.	1r	.
.	.	4F	De-	.	.	.	.
2G	Pa-	4G	-us	.	.	.	.
.	.	4B-y	Pa-	.	.	.	.
!!LO:LB:g=original
=30	=30	=30	=30	=30	=30	=30	=30
2D	-ter	4A	-ter	1r	.	1r	.
.	.	4.d	om-	.	.	.	.
4G	om-	.	.	.	.	.	.
.	.	8c	.	.	.	.	.
[4F	-ni-	[4d	-ni-	.	.	.	.
=31	=31	=31	=31	=31	=31	=31	=31
4F]	.	8dL]	.	1r	.	1r	.
.	.	8cJ	.	.	.	.	.
8E-iL	.	2B-y	-pot-	.	.	.	.
8DJ	.	.	.	.	.	.	.
4C	.	.	.	.	.	.	.
4C	-pot-	4A	.	.	.	.	.
=32	=32	=32	=32	=32	=32	=32	=32
2BB-y	-ens.	2B-y	-ens.	4r	.	1r	.
.	.	.	.	4d	Do-	.	.
4F	Do-	2r	.	4d	-mi-	.	.
4D	-mi-	.	.	4d	-ne	.	.
=33	=33	=33	=33	=33	=33	=33	=33
4E-i	-ne	2r	.	8cL	Fi-	1r	.
.	.	.	.	8B-y	.	.	.
4F	.	.	.	8A	.	.	.
.	.	.	.	8GJ	.	.	.
4D	Fi-	4r	.	4F	.	.	.
4BB-y	.	4d	Do-	[4B-y	.	.	.
=34	=34	=34	=34	=34	=34	=34	=34
2F	-li	4c	-mi-	4B-]	.	2r	.
.	.	4c	-ne	4A	.	.	.
2r	.	4B-y	Fi-	2B-y	-li	4r	.
.	.	4d	-li	.	.	4b-y	U-
=35	=35	=35	=35	=35	=35	=35	=35
1r	.	2d	u-	1r	.	4b-y	-ni-
.	.	.	.	.	.	4b-y	-ge-
.	.	4c	-ni-	.	.	8aL	-ni-
.	.	.	.	.	.	8g	.
.	.	[4d	-ge-	.	.	8f	.
.	.	.	.	.	.	8e-jJ	.
!!LO:LB:g=original
=36	=36	=36	=36	=36	=36	=36	=36
1r	.	4d]	.	1r	.	4d	.
.	.	8cL	.	.	.	2g	.
.	.	8B-yJ	.	.	.	.	.
.	.	4A	.	.	.	.	.
.	.	4A	-ni-	.	.	4f#i	.
=37	=37	=37	=37	=37	=37	=37	=37
1r	.	1G	-te	2r	.	4g	-te
.	.	.	.	.	.	4.b-y	Je-
.	.	.	.	2d	Je-	.	.
.	.	.	.	.	.	8aL	.
.	.	.	.	.	.	8g	.
.	.	.	.	.	.	8fJ	.
=38	=38	=38	=38	=38	=38	=38	=38
2E-i	Je-	2G	Je-	2B-y	-su	2g	.
2D	-su	2A	-su	[2d	Chri-	2f	-su
=39	=39	=39	=39	=39	=39	=39	=39
1G	Chri-	1B-y	Chri-	2d]	.	1g	Chri-
.	.	.	.	2e	.	.	.
=40	=40	=40	=40	=40	=40	=40	=40
1F	-ste.	1A	-ste.	1f	-ste.	1a	-ste.
=41	=41	=41	=41	=41	=41	=41	=41
4.G	Do-	1r	.	4.e	Do-	1r	.
8G	-mi-	.	.	8e	-mi-	.	.
4G	-ne	.	.	4e	-ne	.	.
4A	.	.	.	4f	.	.	.
=42	=42	=42	=42	=42	=42	=42	=42
4.B-y	De-	1r	.	4d	.	1r	.
.	.	.	.	4.g	De-	.	.
8G	.	.	.	.	.	.	.
2B-y	.	.	.	.	.	.	.
.	.	.	.	8fL	.	.	.
.	.	.	.	8e	.	.	.
.	.	.	.	8dJ	.	.	.
!!LO:PB:g=original
=43	=43	=43	=43	=43	=43	=43	=43
2A	-us,	2r	.	2c	-us,	2r	.
2r	.	2c	A-	2r	.	2a	A-
=44	=44	=44	=44	=44	=44	=44	=44
1r	.	4.d	.	1r	.	4a	-gnus
.	.	.	.	.	.	4b-y	De-
.	.	8B-y	.	.	.	.	.
.	.	2c	-gnus	.	.	4g	-i,
.	.	.	.	.	.	[4cc	Fi-
=45	=45	=45	=45	=45	=45	=45	=45
2C	Fi-	2e-X	De-	2r	.	8ccL]	.
.	.	.	.	.	.	8b-y	.
.	.	.	.	.	.	8a	.
.	.	.	.	.	.	8gJ	.
2D	-li-	2d	-i,	2A	Fi-	2f	.
=46	=46	=46	=46	=46	=46	=46	=46
4G	-us	4B-y	Fi-	4B-y	-li-	8dL	-li-
.	.	.	.	.	.	8e	.
2F	Pa-	4A	.	2c	-us	8f	.
.	.	.	.	.	.	8gJ	.
.	.	4c	-li-	.	.	4a	-us
4D	.	[4d	-us	[4f	Pa-	4b-y	Pa-
=47	=47	=47	=47	=47	=47	=47	=47
4F	.	4d]	.	8fL]	.	4a	.
.	.	.	.	8eJ	.	.	.
4G	.	4B-y	Pa-	2.d	.	2g	.
2D	.	2A	.	.	.	.	.
.	.	.	.	.	.	4f#i	.
=48	=48	=48	=48	=48	=48	=48	=48
0GG	-tris.	0G	-tris.	0d	-tris.	0g	-tris.
!!LO:LB:g=original
=49||	=49||	=49||	=49||	=49||	=49||	=49||	=49||
*M2/2	*	*M2/2	*	*M2/2	*	*M2/2	*
*met(C|)	*	*met(C|)	*	*met(C|)	*	*met(C|)	*
2D	Qui	2d	Qui	2A	Qui	2r	.
2D	tol-	2d	tol-	2A	tol-	2a	Qui
=50	=50	=50	=50	=50	=50	=50	=50
4F	-lis	4c	-lis	4A	-lis	2a	tol-
4F	pec-	4c	pec-	4A	pec-	.	.
2C	-ca-	2e-X	-ca-	2c	-ca-	4g	-lis
.	.	.	.	.	.	4g	pec-
=51	=51	=51	=51	=51	=51	=51	=51
2GG	-ta	2d	-ta	2B-y	-ta	2b-y	-ca-
2AA	mun-	2c	mun-	2c	mun-	2a	-ta
=52	=52	=52	=52	=52	=52	=52	=52
2C	-di,	2e-i	-di,	4.c	-di,	2g	mun-
.	.	.	.	8B-y	.	.	.
2D	mi-	2d	mi-	8AL	.	4f	-di,
.	.	.	.	8GJ	.	.	.
.	.	.	.	4F	.	4b-y	mi-
=53	=53	=53	=53	=53	=53	=53	=53
4F	-se-	4c	-se-	4f	mi-	4a	-se-
2G	-re-	2B-y	-re-	4d	-se-	2g	-re-
.	.	.	.	4.d	-re-	.	.
4D	-re	4A	-re	.	.	4f	-re
.	.	.	.	8d	-re	.	.
=54	=54	=54	=54	=54	=54	=54	=54
2G	no-	2B-y	no-	4.d	no-	2g	no-
.	.	.	.	8e	.	.	.
[2F	-bis.	[2A	-bis.	[2f	-bis.	2a	-bis.
!!LO:LB:g=original
=55	=55	=55	=55	=55	=55	=55	=55
2F]	.	2A]	.	2f]	.	4r	.
.	.	.	.	.	.	4a	Qui
2r	.	2r	.	4r	.	2b-y	tol-
.	.	.	.	4d	Qui	.	.
=56	=56	=56	=56	=56	=56	=56	=56
1r	.	1r	.	2f	tol-	4a	-lis
.	.	.	.	.	.	4a	pec-
.	.	.	.	4e	-lis	2cc	-ca-
.	.	.	.	4e	pec-	.	.
=57	=57	=57	=57	=57	=57	=57	=57
1r	.	1r	.	2g	-ca-	2b-y	-ta
.	.	.	.	4f	-ta	4a	mun-
.	.	.	.	[4d	mun-	[4b-y	.
=58	=58	=58	=58	=58	=58	=58	=58
1r	.	1r	.	4d]	.	4b-]	.
.	.	.	.	8cL	.	8aL	.
.	.	.	.	8B-yJ	.	8gJ	.
.	.	.	.	2A	-di,	2f	-di,
=59	=59	=59	=59	=59	=59	=59	=59
2D	Sus-	2A	Sus-	2d	sus-	2f	sus-
4D	-ci-	4A	-ci-	4d	-ci-	4f	-ci-
[4D	-pe	[4A	-pe	[4d	-pe	[4f	-pe
=60	=60	=60	=60	=60	=60	=60	=60
4D]	.	4A]	.	4d]	.	4f]	.
4F	de-	2A	de-	4c	de-	4f	de-
4F	-pre-	.	.	4c	-pre-	4f	-pre-
[4C	-ca-	4G	-pre-	[4c	-ca-	[4g	-ca-
=61	=61	=61	=61	=61	=61	=61	=61
4C]	.	4E	-ca-	4c]	.	4g]	.
4D	-ti-	4F	-ti-	4B-y	-ti-	4f	-ti-
2C	-o-	2G	-o-	2c	-o-	2e	-o-
!!LO:LB:g=original
=62	=62	=62	=62	=62	=62	=62	=62
2BB-y	-nem	2D	-nem	4F	-nem	4f	-nem
.	.	.	.	4G	.	2d	no-
2AA	no-	2E	no-	2A	no-	.	.
.	.	.	.	.	.	4c#i	.
=63	=63	=63	=63	=63	=63	=63	=63
2BB-y	-stram.	1D	-stram.	2F	-stram.	1d	-stram.
4r	.	.	.	2r	.	.	.
4GG	Qui	.	.	.	.	.	.
=64	=64	=64	=64	=64	=64	=64	=64
2BB-y	se-	2D	Qui	1r	.	1r	.
4BB-y	-des	4D	se-	.	.	.	.
4BB-y	ad	[4G	-des	.	.	.	.
=65	=65	=65	=65	=65	=65	=65	=65
4AA	dex-	4G]	.	1r	.	2r	.
4AA	-te-	4F#i	ad	.	.	.	.
2GG	-ram	2G	dex-	.	.	2d	Qui
=66	=66	=66	=66	=66	=66	=66	=66
2G	Pa-	4B-y	-te-	1r	.	4d	se-
.	.	4B-y	-ram	.	.	2g	-des
2D	-tris,	2A	Pa-	.	.	.	.
.	.	.	.	.	.	4f#i	ad
=67	=67	=67	=67	=67	=67	=67	=67
1r	.	2G	-tris.	2r	.	2g	dex-
.	.	2r	.	4r	.	4b-y	-te-
.	.	.	.	[4g	Mi-	4b-y	-ram
=68	=68	=68	=68	=68	=68	=68	=68
2r	.	1r	.	4g]	.	2a	Pa-
.	.	.	.	4f#i	-se-	.	.
4r	.	.	.	2g	-re-	2g	-tris.
[4G	mi-	.	.	.	.	.	.
!!LO:PB:g=original
=69	=69	=69	=69	=69	=69	=69	=69
4G]	.	1r	.	4d	-re	1r	.
4D	-se-	.	.	4.f	no-	.	.
2F	-re-	.	.	.	.	.	.
.	.	.	.	8e-iL	.	.	.
.	.	.	.	8d	.	.	.
.	.	.	.	8cJ	.	.	.
=70	=70	=70	=70	=70	=70	=70	=70
2G	-re	1r	.	4B-y	.	1r	.
.	.	.	.	2d	.	.	.
*lig	*	*	*	*	*	*	*
2D	no-	.	.	.	.	.	.
.	.	.	.	8cL	.	.	.
.	.	.	.	8B-yJ	.	.	.
=71	=71	=71	=71	=71	=71	=71	=71
2E-i	.	1r	.	8cL	.	1r	.
.	.	.	.	8B-y	.	.	.
.	.	.	.	8A	.	.	.
.	.	.	.	8GJ	.	.	.
*Xlig	*	*	*	*	*	*	*
4D	.	.	.	4F	.	.	.
*col	*	*	*	*	*	*	*
[4E-i	.	.	.	[4G	.	.	.
=72	=72	=72	=72	=72	=72	=72	=72
8E-L]	.	1r	.	8GL]	.	1r	.
8D	.	.	.	8FJ	.	.	.
*Xcol	*	*	*	*	*	*	*
8C	.	.	.	2B-y	.	.	.
8BB-yJ	.	.	.	.	.	.	.
2C	.	.	.	.	.	.	.
.	.	.	.	4A	.	.	.
=73	=73	=73	=73	=73	=73	=73	=73
4BB-y	-bis.	4r	.	4B-y	-bis.	4r	.
4.GG	Quo-	4.d	Quo-	4.B-y	Quo-	4.b-y	Quo-
8GG	-ni-	8d	-ni-	8B-y	-ni-	8b-y	-ni-
4GG	-am	4d	-am	4B-y	-am	4b-y	-am
=74	=74	=74	=74	=74	=74	=74	=74
4GG	tu	4d	tu	4G	tu	4b-y	tu
2GG	so-	2d	so-	2G	so-	2b-y	so-
4GG	-lus	4d	-lus	4G	-lus	4b-y	-lus
!!LO:LB:g=original
=75	=75	=75	=75	=75	=75	=75	=75
2GG	san-	2d	san-	2G	san-	2b-y	san-
2D	-ctus.	2d	-ctus.	2F	-ctus.	2a	-ctus.
=76	=76	=76	=76	=76	=76	=76	=76
1r	.	4r	.	1r	.	2a	Tu
.	.	4c	Tu	.	.	.	.
.	.	[2c	so-	.	.	[2a	so-
=77	=77	=77	=77	=77	=77	=77	=77
1r	.	4c]	.	1r	.	4a]	.
.	.	4c	-lus	.	.	4a	-lus
.	.	2d	Do-	.	.	4.b-y	Do-
.	.	.	.	.	.	8a	.
=78	=78	=78	=78	=78	=78	=78	=78
1r	.	4B-y	.	1r	.	4.g	.
.	.	4.c	.	.	.	.	.
.	.	.	.	.	.	8f	.
.	.	.	.	.	.	8eL	.
.	.	8B-y	.	.	.	8dJ	.
.	.	[4c	.	.	.	[4g	.
=79	=79	=79	=79	=79	=79	=79	=79
1r	.	4c]	.	1r	.	4g]	.
.	.	4A	.	.	.	2f	-mi-
.	.	2G	-mi-	.	.	.	.
.	.	.	.	.	.	4e	.
=80	=80	=80	=80	=80	=80	=80	=80
2r	.	2F	-nus.	1r	.	2f	-nus.
2D	Tu	2r	.	.	.	2r	.
=81	=81	=81	=81	=81	=81	=81	=81
4.F	so-	1r	.	2d	Tu	1r	.
8E-	.	.	.	.	.	.	.
8DL	.	.	.	2f	so-	.	.
8CJ	.	.	.	.	.	.	.
[4D	.	.	.	.	.	.	.
!!LO:LB:g=original
=82	=82	=82	=82	=82	=82	=82	=82
4D]	.	1r	.	4d	-lus	1r	.
4C	-lus	.	.	4e-i	Al-	.	.
4BB-y	Al-	.	.	4.f	-tis-	.	.
[4D	-tis-	.	.	.	.	.	.
.	.	.	.	8e-i	.	.	.
=83	=83	=83	=83	=83	=83	=83	=83
8DL]	.	1r	.	8dL	.	1r	.
8E-iJ	.	.	.	8cJ	.	.	.
4.F	.	.	.	2d	.	.	.
8D	.	.	.	.	.	.	.
[4G	.	.	.	4B-y	.	.	.
=84	=84	=84	=84	=84	=84	=84	=84
4G]	.	1r	.	2A	-si-	1r	.
4F#i	-si-	.	.	.	.	.	.
2G	-mus,	.	.	2G	-mus,	.	.
=85	=85	=85	=85	=85	=85	=85	=85
2E-i	Je-	2G	Je-	2c	Je-	2g	Je-
2D	-su	2A	-su	2d	-su	2f	-su
=86	=86	=86	=86	=86	=86	=86	=86
1C	Chri-	1c	Chri-	1e-i	Chri-	1g	Chri-
=87	=87	=87	=87	=87	=87	=87	=87
*	*	*	*	*	*	*col	*
2.D	-ste.	2.A	-ste.	2.d	-ste.	2.f	-ste.
4D	Cum	4A	Cum	4d	Cum	4f	Cum
*	*	*	*	*	*	*Xcol	*
=88	=88	=88	=88	=88	=88	=88	=88
4D	San-	4A	San-	4d	San-	4f	San-
4D	-cto	4A	-cto	4d	-cto	4f	-cto
4.G	Spi-	4.B-y	Spi-	4.d	Spi-	4.g	Spi-
8G	-ri-	8B-y	-ri-	8e	-ri-	8g	-ri-
!!LO:LB:g=original
=89	=89	=89	=89	=89	=89	=89	=89
2.F	-tu,	2.c	-tu,	2.f	-tu,	2.a	-tu,
4F	in	4c	in	4f	in	4a	in
=90	=90	=90	=90	=90	=90	=90	=90
2F	glo-	2c	glo-	2f	glo-	2a	glo-
4F	-ri-	4c	-ri-	4f	-ri-	4a	-ri-
4F	-a	4c	-a	4f	-a	4a	-a
=91	=91	=91	=91	=91	=91	=91	=91
4G	De-	4B-y	De-	4d	De-	4b-y	De-
4A	-i	4c	-i	4f	-i	4a	-i
2G	Pa-	2d	Pa-	2g	Pa-	2b-y	Pa-
=92	=92	=92	=92	=92	=92	=92	=92
2C	-tris.	2c	-tris.	2e	-tris.	4a	.
.	.	.	.	.	.	2g	.
8CL	A-	4r	.	4c	A-	.	.
8D	.	.	.	.	.	.	.
8E	.	4c	A-	[4g	.	8fL	.
8FJ	.	.	.	.	.	8eJ	.
=93	=93	=93	=93	=93	=93	=93	=93
2G	.	4B-y	.	4g]	.	4d	-tris.
.	.	2d	.	8fL	.	2b-y	A-
.	.	.	.	8eJ	.	.	.
8GGL	.	.	.	4g	.	.	.
8AA	.	.	.	.	.	.	.
8BB-y	.	8cL	.	[4d	.	8aL	.
8CJ	.	8B-yJ	.	.	.	8gJ	.
=94	=94	=94	=94	=94	=94	=94	=94
4D	.	4A	.	4d]	.	4f	.
4E-i	.	4G	.	4c	.	2g	.
2D	.	2A	.	2d	.	.	.
.	.	.	.	.	.	4f#i	.
=95	=95	=95	=95	=95	=95	=95	=95
0GGl	-men.	0Gl	-men.	0dl	-men.	0gl	-men.
==	==	==	==	==	==	==	==
*-	*-	*-	*-	*-	*-	*-	*-
!!!system-decoration: [*]
!!!RDF**kern: j = editorial accidental, optional, paren up
!!!RDF**kern: i = editorial accidental
!!!RDF**kern: l = terminal long
!!!PTL: Gaspar van Weerbeke: Collected Works. II. Masses, Part 2
!!!PPR: American Institute of Musicology
!!!PC#: Corpus Mensurabilis Musicae 106/II.2
!!!PDT: 2018
!!!PED: Kolb, Paul
!!!YEC: Copyright 2016, Kolb, Paul
!!!YEM: CC-BY-NC 4.0 (https://creativecommons.org/licenses/by-nc/4.0/legalcode)
!!!EED: Zybina, Karina
!!!EEV: 2021/11/29
!!!title: @{OPR} &mdash; @{OTL}
